src/images/svg/package-vector-bottom.svg

<svg width="641" height="210" viewBox="0 0 641 210" fill="none" xmlns="http://www.w3.org/2000/svg">
<path d="M9.21032e-06 104.64L2.2092e-06 184.723C1.62328e-06 191.426 4.22398 197.853 11.743 202.592C19.263 207.331 29.461 209.994 40.095 209.994L600.905 209.994C611.539 209.994 621.737 207.331 629.257 202.592C636.776 197.853 641 191.426 641 184.723L641 104.102C641 99.2118 638.748 94.4272 634.517 90.3274C630.286 86.2277 624.258 82.9912 617.165 81.0094L335.026 2.17913C329.893 0.74184 324.34 -1.24245e-05 318.723 -1.29156e-05C313.107 -1.34065e-05 307.554 0.741838 302.421 2.17912L24.389 80.8742C17.121 82.932 10.952 86.2699 6.62501 90.4867C2.29701 94.7026 -0.00299035 99.6181 9.21032e-06 104.64Z" fill="white"/>
</svg>

<svg width="641" height="210" fill="none" xmlns="http://www.w3.org/2000/svg"><path d="M0 104.64v80.083c0 6.703 4.224 13.13 11.743 17.869 7.52 4.739 17.718 7.402 28.352 7.402h560.81c10.634 0 20.832-2.663 28.352-7.402 7.519-4.739 11.743-11.166 11.743-17.869v-80.621c0-4.89-2.252-9.675-6.483-13.775s-10.259-7.336-17.352-9.318L335.026 2.18C329.893.742 324.34 0 318.723 0c-5.616 0-11.169.742-16.302 2.18L24.389 80.873c-7.268 2.058-13.437 5.396-17.764 9.613C2.297 94.703-.003 99.618 0 104.64z" fill="#fff"/></svg>
